; generated by Slic3r Prusa Edition 1.41.0-alpha3+win64 on 2019-08-04 at 17:26:01

; 

; external perimeters extrusion width = 0.45mm
; perimeters extrusion width = 0.45mm
; infill extrusion width = 0.45mm
; solid infill extrusion width = 0.45mm
; top infill extrusion width = 0.40mm
; support material extrusion width = 0.40mm
; first layer extrusion width = 0.40mm

M107 ; disable fan
M104 S170; init nozzle temp
M190 S50 ; wait for bed to heat up
M104 S200; set nozzle temp
G32 ; autolevel
G28 ; home all
M109 S200; wait for nozzle to heat up
; Filament gcode
G21 ; set units to millimeters
G90 ; use absolute coordinates
M82 ; use absolute distances for extrusion
G92 E0 ; reset extrusion distance
G1 Z0.200 F3000.000 ; move to next layer (0)
G1 E-7.00000 F4800.00000 ; retract
G92 E0 ; reset extrusion distance
G1 X96.201 Y95.831 F3000.000 ; move to first skirt point
G1 E7.00000 F4800.00000 ; unretract
G1 F1080
G1 X97.670 Y94.536 E7.06469 ; skirt
G1 X99.102 Y93.496 E7.12316 ; skirt
G1 X100.761 Y92.513 E7.18686 ; skirt
G1 X102.601 Y91.658 E7.25392 ; skirt
G1 X104.490 Y91.005 E7.31995 ; skirt
G1 X106.344 Y90.564 E7.38288 ; skirt
G1 X108.039 Y90.320 E7.43947 ; skirt
G1 X110.103 Y90.223 E7.50775 ; skirt
G1 X112.093 Y90.333 E7.57357 ; skirt
G1 X114.106 Y90.653 E7.64090 ; skirt
G1 X116.081 Y91.180 E7.70844 ; skirt
G1 X117.896 Y91.867 E7.77255 ; skirt
G1 X119.454 Y92.628 E7.82984 ; skirt
G1 X121.124 Y93.647 E7.89448 ; skirt
G1 X122.786 Y94.912 E7.96347 ; skirt
G1 X124.169 Y96.201 E8.02593 ; skirt
G1 X125.464 Y97.670 E8.09061 ; skirt
G1 X126.504 Y99.102 E8.14908 ; skirt
G1 X127.487 Y100.761 E8.21279 ; skirt
G1 X128.345 Y102.608 E8.28009 ; skirt
G1 X128.995 Y104.490 E8.34587 ; skirt
G1 X129.439 Y106.358 E8.40929 ; skirt
G1 X129.681 Y108.054 E8.46588 ; skirt
G1 X129.777 Y110.154 E8.53535 ; skirt
G1 X129.665 Y112.115 E8.60022 ; skirt
G1 X129.344 Y114.120 E8.66731 ; skirt
G1 X128.818 Y116.088 E8.73461 ; skirt
G1 X128.127 Y117.909 E8.79896 ; skirt
G1 X127.368 Y119.460 E8.85601 ; skirt
G1 X126.349 Y121.130 E8.92064 ; skirt
G1 X125.084 Y122.792 E8.98963 ; skirt
G1 X123.793 Y124.174 E9.05210 ; skirt
G1 X122.330 Y125.464 E9.11654 ; skirt
G1 X120.892 Y126.508 E9.17525 ; skirt
G1 X119.233 Y127.491 E9.23896 ; skirt
G1 X117.385 Y128.348 E9.30626 ; skirt
G1 X115.503 Y128.997 E9.37204 ; skirt
G1 X113.642 Y129.439 E9.43522 ; skirt
G1 X111.946 Y129.681 E9.49181 ; skirt
G1 X109.846 Y129.777 E9.56128 ; skirt
G1 X107.886 Y129.665 E9.62613 ; skirt
G1 X105.880 Y129.344 E9.69324 ; skirt
G1 X103.912 Y128.818 E9.76054 ; skirt
G1 X102.091 Y128.127 E9.82488 ; skirt
G1 X100.540 Y127.368 E9.88193 ; skirt
G1 X98.870 Y126.349 E9.94657 ; skirt
G1 X97.208 Y125.084 E10.01556 ; skirt
G1 X95.826 Y123.794 E10.07802 ; skirt
G1 X94.536 Y122.330 E10.14247 ; skirt
G1 X93.492 Y120.892 E10.20118 ; skirt
G1 X92.509 Y119.233 E10.26488 ; skirt
G1 X91.652 Y117.385 E10.33218 ; skirt
G1 X91.003 Y115.503 E10.39797 ; skirt
G1 X90.561 Y113.642 E10.46114 ; skirt
G1 X90.319 Y111.946 E10.51774 ; skirt
G1 X90.223 Y109.846 E10.58721 ; skirt
G1 X90.335 Y107.893 E10.65183 ; skirt
G1 X90.656 Y105.880 E10.71916 ; skirt
G1 X91.182 Y103.912 E10.78647 ; skirt
G1 X91.870 Y102.098 E10.85057 ; skirt
G1 X92.632 Y100.540 E10.90786 ; skirt
G1 X93.651 Y98.870 E10.97250 ; skirt
G1 X94.912 Y97.214 E11.04125 ; skirt
G1 X96.160 Y95.875 E11.10173 ; skirt
G1 X96.421 Y96.119 F3000.000 ; move to first skirt point
G1 F1080
G1 X97.894 Y94.814 E11.16673 ; skirt
G1 X99.297 Y93.795 E11.22401 ; skirt
G1 X100.928 Y92.828 E11.28666 ; skirt
G1 X102.738 Y91.988 E11.35257 ; skirt
G1 X104.593 Y91.347 E11.41740 ; skirt
G1 X106.411 Y90.914 E11.47916 ; skirt
G1 X108.070 Y90.676 E11.53452 ; skirt
G1 X110.103 Y90.580 E11.60177 ; skirt
G1 X112.058 Y90.688 E11.66644 ; skirt
G1 X114.033 Y91.002 E11.73251 ; skirt
G1 X115.974 Y91.521 E11.79889 ; skirt
G1 X117.756 Y92.196 E11.86184 ; skirt
G1 X119.283 Y92.942 E11.91798 ; skirt
G1 X120.925 Y93.944 E11.98155 ; skirt
G1 X122.557 Y95.185 E12.04927 ; skirt
G1 X123.915 Y96.453 E12.11065 ; skirt
G1 X125.186 Y97.894 E12.17413 ; skirt
G1 X126.209 Y99.303 E12.23165 ; skirt
G1 X127.172 Y100.928 E12.29406 ; skirt
G1 X128.015 Y102.744 E12.36021 ; skirt
G1 X128.653 Y104.593 E12.42481 ; skirt
G1 X129.088 Y106.425 E12.48703 ; skirt
G1 X129.326 Y108.084 E12.54239 ; skirt
G1 X129.420 Y110.153 E12.61082 ; skirt
G1 X129.310 Y112.072 E12.67432 ; skirt
G1 X128.995 Y114.047 E12.74038 ; skirt
G1 X128.477 Y115.981 E12.80653 ; skirt
G1 X127.799 Y117.769 E12.86972 ; skirt
G1 X127.055 Y119.289 E12.92562 ; skirt
G1 X126.052 Y120.931 E12.98919 ; skirt
G1 X124.810 Y122.562 E13.05691 ; skirt
G1 X123.542 Y123.920 E13.11829 ; skirt
G1 X122.106 Y125.186 E13.18153 ; skirt
G1 X120.697 Y126.208 E13.23905 ; skirt
G1 X119.072 Y127.172 E13.30147 ; skirt
G1 X117.256 Y128.015 E13.36761 ; skirt
G1 X115.407 Y128.653 E13.43221 ; skirt
G1 X113.575 Y129.088 E13.49443 ; skirt
G1 X111.916 Y129.326 E13.54980 ; skirt
G1 X109.847 Y129.420 E13.61823 ; skirt
G1 X107.921 Y129.309 E13.68194 ; skirt
G1 X105.953 Y128.995 E13.74779 ; skirt
G1 X104.019 Y128.477 E13.81393 ; skirt
G1 X102.231 Y127.799 E13.87712 ; skirt
G1 X100.711 Y127.055 E13.93302 ; skirt
G1 X99.069 Y126.052 E13.99659 ; skirt
G1 X97.438 Y124.810 E14.06431 ; skirt
G1 X96.080 Y123.542 E14.12569 ; skirt
G1 X94.814 Y122.106 E14.18894 ; skirt
G1 X93.791 Y120.697 E14.24645 ; skirt
G1 X92.828 Y119.072 E14.30887 ; skirt
G1 X91.985 Y117.256 E14.37502 ; skirt
G1 X91.347 Y115.407 E14.43962 ; skirt
G1 X90.912 Y113.575 E14.50184 ; skirt
G1 X90.674 Y111.916 E14.55721 ; skirt
G1 X90.580 Y109.847 E14.62563 ; skirt
G1 X90.690 Y107.928 E14.68912 ; skirt
G1 X91.005 Y105.953 E14.75519 ; skirt
G1 X91.523 Y104.019 E14.82134 ; skirt
G1 X92.198 Y102.237 E14.88429 ; skirt
G1 X92.945 Y100.711 E14.94042 ; skirt
G1 X93.944 Y99.075 E15.00376 ; skirt
G1 X95.185 Y97.443 E15.07148 ; skirt
G1 X96.380 Y96.162 E15.12935 ; skirt
G1 X96.641 Y96.406 F3000.000 ; move to first skirt point
G1 F1080
G1 X98.118 Y95.092 E15.19467 ; skirt
G1 X99.492 Y94.094 E15.25076 ; skirt
G1 X101.090 Y93.147 E15.31212 ; skirt
G1 X102.868 Y92.321 E15.37689 ; skirt
G1 X104.688 Y91.691 E15.44053 ; skirt
G1 X106.479 Y91.265 E15.50134 ; skirt
G1 X108.108 Y91.031 E15.55571 ; skirt
G1 X110.103 Y90.937 E15.62171 ; skirt
G1 X112.023 Y91.044 E15.68521 ; skirt
G1 X113.960 Y91.352 E15.75001 ; skirt
G1 X115.867 Y91.861 E15.81524 ; skirt
G1 X117.617 Y92.524 E15.87704 ; skirt
G1 X119.112 Y93.255 E15.93202 ; skirt
G1 X120.721 Y94.237 E15.99429 ; skirt
G1 X122.327 Y95.459 E16.06097 ; skirt
G1 X123.661 Y96.704 E16.12126 ; skirt
G1 X124.908 Y98.118 E16.18355 ; skirt
G1 X125.909 Y99.498 E16.23987 ; skirt
G1 X126.857 Y101.096 E16.30123 ; skirt
G1 X127.685 Y102.881 E16.36623 ; skirt
G1 X128.311 Y104.695 E16.42964 ; skirt
G1 X128.738 Y106.492 E16.49068 ; skirt
G1 X128.970 Y108.115 E16.54482 ; skirt
G1 X129.063 Y110.152 E16.61220 ; skirt
G1 X128.955 Y112.037 E16.67456 ; skirt
G1 X128.645 Y113.973 E16.73935 ; skirt
G1 X128.136 Y115.874 E16.80435 ; skirt
G1 X127.470 Y117.629 E16.86638 ; skirt
G1 X126.742 Y119.118 E16.92113 ; skirt
G1 X125.759 Y120.727 E16.98340 ; skirt
G1 X124.537 Y122.333 E17.05009 ; skirt
G1 X123.291 Y123.666 E17.11038 ; skirt
G1 X121.882 Y124.908 E17.17243 ; skirt
G1 X120.502 Y125.909 E17.22875 ; skirt
G1 X118.904 Y126.857 E17.29012 ; skirt
G1 X117.119 Y127.685 E17.35511 ; skirt
G1 X115.305 Y128.311 E17.41853 ; skirt
G1 X113.508 Y128.738 E17.47956 ; skirt
G1 X111.885 Y128.970 E17.53370 ; skirt
G1 X109.848 Y129.063 E17.60108 ; skirt
G1 X107.964 Y128.955 E17.66342 ; skirt
G1 X106.027 Y128.645 E17.72824 ; skirt
G1 X104.126 Y128.136 E17.79323 ; skirt
G1 X102.371 Y127.470 E17.85526 ; skirt
G1 X100.882 Y126.742 E17.91001 ; skirt
G1 X99.274 Y125.759 E17.97228 ; skirt
G1 X97.667 Y124.537 E18.03897 ; skirt
G1 X96.334 Y123.291 E18.09925 ; skirt
G1 X95.092 Y121.882 E18.16131 ; skirt
G1 X94.091 Y120.502 E18.21763 ; skirt
G1 X93.143 Y118.904 E18.27900 ; skirt
G1 X92.315 Y117.119 E18.34400 ; skirt
G1 X91.689 Y115.305 E18.40741 ; skirt
G1 X91.262 Y113.508 E18.46844 ; skirt
G1 X91.030 Y111.885 E18.52259 ; skirt
G1 X90.937 Y109.848 E18.58996 ; skirt
G1 X91.045 Y107.964 E18.65231 ; skirt
G1 X91.355 Y106.027 E18.71711 ; skirt
G1 X91.864 Y104.126 E18.78211 ; skirt
G1 X92.530 Y102.371 E18.84415 ; skirt
G1 X93.258 Y100.882 E18.89889 ; skirt
G1 X94.241 Y99.274 E18.96116 ; skirt
G1 X95.459 Y97.673 E19.02762 ; skirt
G1 X96.600 Y96.450 E19.08288 ; skirt
G1 X96.861 Y96.693 F3000.000 ; move to first skirt point
G1 F1080
G1 X96.955 Y96.592 E19.08744 ; skirt
G1 X98.343 Y95.370 E19.14854 ; skirt
G1 X99.688 Y94.393 E19.20344 ; skirt
G1 X101.257 Y93.462 E19.26375 ; skirt
G1 X103.004 Y92.651 E19.32737 ; skirt
G1 X104.791 Y92.033 E19.38982 ; skirt
G1 X106.546 Y91.615 E19.44944 ; skirt
G1 X108.139 Y91.387 E19.50259 ; skirt
G1 X110.103 Y91.294 E19.56756 ; skirt
G1 X111.981 Y91.398 E19.62968 ; skirt
G1 X113.887 Y91.701 E19.69344 ; skirt
G1 X115.760 Y92.202 E19.75751 ; skirt
G1 X117.477 Y92.853 E19.81816 ; skirt
G1 X118.941 Y93.568 E19.87198 ; skirt
G1 X120.522 Y94.533 E19.93319 ; skirt
G1 X122.098 Y95.733 E19.99860 ; skirt
G1 X123.408 Y96.955 E20.05780 ; skirt
G1 X124.630 Y98.343 E20.11889 ; skirt
G1 X125.610 Y99.693 E20.17402 ; skirt
G1 X126.541 Y101.263 E20.23433 ; skirt
G1 X127.355 Y103.017 E20.29818 ; skirt
G1 X127.969 Y104.797 E20.36040 ; skirt
G1 X128.387 Y106.560 E20.42025 ; skirt
G1 X128.615 Y108.155 E20.47348 ; skirt
G1 X128.706 Y110.151 E20.53949 ; skirt
G1 X128.600 Y111.994 E20.60049 ; skirt
G1 X128.296 Y113.900 E20.66425 ; skirt
G1 X127.796 Y115.767 E20.72809 ; skirt
G1 X127.142 Y117.489 E20.78897 ; skirt
G1 X126.432 Y118.941 E20.84234 ; skirt
G1 X125.467 Y120.522 E20.90354 ; skirt
G1 X124.267 Y122.098 E20.96896 ; skirt
G1 X123.040 Y123.413 E21.02839 ; skirt
G1 X121.657 Y124.630 E21.08925 ; skirt
G1 X120.307 Y125.610 E21.14438 ; skirt
G1 X118.737 Y126.541 E21.20469 ; skirt
G1 X116.983 Y127.355 E21.26854 ; skirt
G1 X115.203 Y127.969 E21.33076 ; skirt
G1 X113.440 Y128.387 E21.39060 ; skirt
G1 X111.845 Y128.615 E21.44384 ; skirt
G1 X109.849 Y128.706 E21.50985 ; skirt
G1 X107.999 Y128.600 E21.57106 ; skirt
G1 X106.100 Y128.296 E21.63461 ; skirt
G1 X104.233 Y127.796 E21.69845 ; skirt
G1 X102.511 Y127.142 E21.75933 ; skirt
G1 X101.059 Y126.432 E21.81270 ; skirt
G1 X99.478 Y125.467 E21.87390 ; skirt
G1 X97.897 Y124.263 E21.93955 ; skirt
G1 X96.588 Y123.040 E21.99874 ; skirt
G1 X95.370 Y121.657 E22.05961 ; skirt
G1 X94.390 Y120.307 E22.11474 ; skirt
G1 X93.459 Y118.737 E22.17505 ; skirt
G1 X92.645 Y116.983 E22.23890 ; skirt
G1 X92.031 Y115.203 E22.30112 ; skirt
G1 X91.613 Y113.440 E22.36096 ; skirt
G1 X91.385 Y111.845 E22.41419 ; skirt
G1 X91.294 Y109.849 E22.48021 ; skirt
G1 X91.400 Y108.006 E22.54121 ; skirt
G1 X91.706 Y106.093 E22.60519 ; skirt
G1 X92.204 Y104.233 E22.66881 ; skirt
G1 X92.858 Y102.510 E22.72969 ; skirt
G1 X93.568 Y101.059 E22.78306 ; skirt
G1 X94.533 Y99.478 E22.84426 ; skirt
G1 X95.733 Y97.902 E22.90968 ; skirt
G1 X96.820 Y96.737 E22.96234 ; skirt
G1 X97.081 Y96.981 F3000.000 ; move to first skirt point
G1 F1080
G1 X97.206 Y96.846 E22.96841 ; skirt
G1 X98.567 Y95.648 E23.02831 ; skirt
G1 X99.888 Y94.689 E23.08225 ; skirt
G1 X101.425 Y93.777 E23.14128 ; skirt
G1 X103.140 Y92.981 E23.20376 ; skirt
G1 X104.893 Y92.375 E23.26502 ; skirt
G1 X106.614 Y91.966 E23.32345 ; skirt
G1 X108.170 Y91.742 E23.37540 ; skirt
G1 X110.103 Y91.651 E23.43933 ; skirt
G1 X111.946 Y91.754 E23.50029 ; skirt
G1 X113.820 Y92.052 E23.56300 ; skirt
G1 X115.653 Y92.543 E23.62569 ; skirt
G1 X117.337 Y93.182 E23.68520 ; skirt
G1 X118.769 Y93.882 E23.73786 ; skirt
G1 X120.318 Y94.826 E23.79777 ; skirt
G1 X121.868 Y96.006 E23.86214 ; skirt
G1 X123.154 Y97.206 E23.92025 ; skirt
G1 X124.352 Y98.567 E23.98015 ; skirt
G1 X125.311 Y99.888 E24.03409 ; skirt
G1 X126.223 Y101.425 E24.09312 ; skirt
G1 X127.022 Y103.146 E24.15581 ; skirt
G1 X127.625 Y104.893 E24.21685 ; skirt
G1 X128.036 Y106.627 E24.27573 ; skirt
G1 X128.259 Y108.186 E24.32776 ; skirt
G1 X128.349 Y110.150 E24.39270 ; skirt
G1 X128.245 Y111.959 E24.45257 ; skirt
G1 X127.945 Y113.833 E24.51528 ; skirt
G1 X127.455 Y115.660 E24.57775 ; skirt
G1 X126.813 Y117.350 E24.63747 ; skirt
G1 X126.118 Y118.769 E24.68969 ; skirt
G1 X125.170 Y120.323 E24.74983 ; skirt
G1 X123.990 Y121.873 E24.81420 ; skirt
G1 X122.789 Y123.159 E24.87231 ; skirt
G1 X121.433 Y124.352 E24.93199 ; skirt
G1 X120.112 Y125.311 E24.98592 ; skirt
G1 X118.575 Y126.223 E25.04496 ; skirt
G1 X116.854 Y127.022 E25.10765 ; skirt
G1 X115.107 Y127.625 E25.16869 ; skirt
G1 X113.373 Y128.036 E25.22756 ; skirt
G1 X111.814 Y128.259 E25.27960 ; skirt
G1 X109.850 Y128.349 E25.34454 ; skirt
G1 X108.035 Y128.244 E25.40461 ; skirt
G1 X106.167 Y127.945 E25.46711 ; skirt
G1 X104.340 Y127.455 E25.52958 ; skirt
G1 X102.650 Y126.813 E25.58931 ; skirt
G1 X101.231 Y126.118 E25.64153 ; skirt
G1 X99.677 Y125.170 E25.70166 ; skirt
G1 X98.127 Y123.990 E25.76604 ; skirt
G1 X96.841 Y122.789 E25.82414 ; skirt
G1 X95.648 Y121.433 E25.88382 ; skirt
G1 X94.689 Y120.112 E25.93776 ; skirt
G1 X93.777 Y118.575 E25.99679 ; skirt
G1 X92.978 Y116.854 E26.05948 ; skirt
G1 X92.375 Y115.107 E26.12052 ; skirt
G1 X91.964 Y113.373 E26.17940 ; skirt
G1 X91.741 Y111.814 E26.23143 ; skirt
G1 X91.651 Y109.850 E26.29637 ; skirt
G1 X91.755 Y108.041 E26.35624 ; skirt
G1 X92.054 Y106.173 E26.41873 ; skirt
G1 X92.543 Y104.347 E26.48120 ; skirt
G1 X93.187 Y102.650 E26.54114 ; skirt
G1 X93.882 Y101.231 E26.59337 ; skirt
G1 X94.826 Y99.682 E26.65328 ; skirt
G1 X96.006 Y98.132 E26.71765 ; skirt
G1 X97.040 Y97.024 E26.76770 ; skirt
G1 X97.458 Y97.100 F3000.000 ; move to first skirt point
G1 F1080
G1 X98.791 Y95.926 E26.82640 ; skirt
G1 X100.078 Y94.991 E26.87893 ; skirt
G1 X101.593 Y94.092 E26.93713 ; skirt
G1 X103.270 Y93.313 E26.99824 ; skirt
G1 X104.989 Y92.719 E27.05831 ; skirt
G1 X106.681 Y92.317 E27.11578 ; skirt
G1 X108.202 Y92.098 E27.16652 ; skirt
G1 X110.103 Y92.008 E27.22941 ; skirt
G1 X111.910 Y92.109 E27.28921 ; skirt
G1 X113.747 Y92.402 E27.35065 ; skirt
G1 X115.546 Y92.883 E27.41219 ; skirt
G1 X117.198 Y93.510 E27.47054 ; skirt
G1 X118.593 Y94.192 E27.52183 ; skirt
G1 X120.119 Y95.123 E27.58089 ; skirt
G1 X121.639 Y96.280 E27.64400 ; skirt
G1 X122.900 Y97.458 E27.70102 ; skirt
G1 X124.074 Y98.791 E27.75972 ; skirt
G1 X125.012 Y100.083 E27.81246 ; skirt
G1 X125.908 Y101.593 E27.87044 ; skirt
G1 X126.692 Y103.283 E27.93198 ; skirt
G1 X127.283 Y104.995 E27.99184 ; skirt
G1 X127.686 Y106.694 E28.04952 ; skirt
G1 X127.903 Y108.218 E28.10036 ; skirt
G1 X127.991 Y110.149 E28.16422 ; skirt
G1 X127.890 Y111.917 E28.22274 ; skirt
G1 X127.597 Y113.753 E28.28418 ; skirt
G1 X127.117 Y115.546 E28.34550 ; skirt
G1 X126.485 Y117.210 E28.40428 ; skirt
G1 X125.805 Y118.598 E28.45536 ; skirt
G1 X124.877 Y120.119 E28.51420 ; skirt
G1 X123.716 Y121.644 E28.57753 ; skirt
G1 X122.538 Y122.905 E28.63455 ; skirt
G1 X121.209 Y124.074 E28.69303 ; skirt
G1 X119.917 Y125.012 E28.74577 ; skirt
G1 X118.407 Y125.908 E28.80376 ; skirt
G1 X116.717 Y126.692 E28.86529 ; skirt
G1 X115.005 Y127.283 E28.92515 ; skirt
G1 X113.306 Y127.686 E28.98283 ; skirt
G1 X111.782 Y127.903 E29.03367 ; skirt
G1 X109.851 Y127.991 E29.09753 ; skirt
G1 X108.077 Y127.890 E29.15625 ; skirt
G1 X106.247 Y127.597 E29.21749 ; skirt
G1 X104.454 Y127.117 E29.27881 ; skirt
G1 X102.790 Y126.485 E29.33760 ; skirt
G1 X101.402 Y125.805 E29.38867 ; skirt
G1 X99.881 Y124.877 E29.44752 ; skirt
G1 X98.356 Y123.716 E29.51084 ; skirt
G1 X97.095 Y122.538 E29.56786 ; skirt
G1 X95.926 Y121.209 E29.62635 ; skirt
G1 X94.988 Y119.917 E29.67908 ; skirt
G1 X94.092 Y118.407 E29.73707 ; skirt
G1 X93.308 Y116.717 E29.79861 ; skirt
G1 X92.717 Y115.005 E29.85846 ; skirt
G1 X92.314 Y113.306 E29.91615 ; skirt
G1 X92.097 Y111.782 E29.96699 ; skirt
G1 X92.009 Y109.851 E30.03085 ; skirt
G1 X92.110 Y108.083 E30.08936 ; skirt
G1 X92.403 Y106.247 E30.15080 ; skirt
G1 X92.883 Y104.454 E30.21213 ; skirt
G1 X93.515 Y102.790 E30.27091 ; skirt
G1 X94.195 Y101.402 E30.32199 ; skirt
G1 X95.123 Y99.881 E30.38083 ; skirt
G1 X96.284 Y98.356 E30.44415 ; skirt
